actions/22x22-dark/view-restore.svg

<svg xmlns="http://www.w3.org/2000/svg" viewBox="0 0 22 22">
 <defs id="defs3051">
   <style type="text/css" id="current-color-scheme">
     .ColorScheme-Text {
       color:#f2f2f2;
     }
     </style>
 </defs>
   <path
      style="fill:currentColor;fill-opacity:1;stroke:none"
      d="m3.6015625 3c-.2224975 0-.4452821.0853241-.6152344.2558594-.3381554.3387385-.3381554.887824 0 1.2265625l3.4921875 3.4921875h-1.8867187c-.5124804.001166-.9257813.3904757-.9257813.8691406 0 .48158.4133009.8691406.9257813.8691406h3.9414062c.5130635 0 .9285215-.3875606.9296875-.8691406-.001166-.0122436-.0046933-.0229127-.0058594-.0351562.0011661-.0151587.0058594-.0332905.0058594-.0507813v-3.8886719c0-.504318-.3887266-.9140625-.8691406-.9140625-.4786649.0017491-.8710937.4097445-.8710938.9140625v1.8945313l-3.5058593-3.5078125c-.1702438-.1705353-.3927369-.2558594-.6152344-.2558594zm14.7968755 0c-.222134-.0000729-.443621.0853241-.613282.2558594l-3.509765 3.5078125v-1.8945313c0-.504318-.391642-.9123134-.869141-.9140625-.48158 0-.869141.4097445-.869141.9140625v3.8886719c0 .0169078.004111.0356226.00586.0507813-.001749.0122435-.004111.0229126-.00586.0351562.001749.48158.414671.8691406.927735.8691406h3.941406c.513646 0 .927734-.3875606.927734-.8691406 0-.4786648-.414088-.8679746-.927734-.8691406h-1.884766l3.490235-3.4902344c.339321-.3387385.339321-.8897771 0-1.2285156-.169661-.1708268-.391148-.2557865-.613281-.2558594zm-9.898438 9.277344-3.8886719.001953c-.5060671 0-.9160156.388727-.9160156.869141.0011661.478664.4099485.86914.9160156.86914h1.8945313l-3.5097656 3.507813c-.3399046.340487-.3404876.890564 0 1.230468.3393214.338156.8911472.338156 1.2304687 0l3.4902344-3.492187v1.886719c.001166.51248.3898927.925781.8691406.925781.480414 0 .8691406-.413301.8691406-.925781v-3.94336c0-.513063-.3881436-.926568-.8691406-.927734-.0134096.001166-.0229127.00274-.0351563.003906-.0163247-.001166-.0338734-.005859-.0507812-.005859zm4.964844.009765c-.513647 0-.925986.386191-.927735.867188.001749.012826.004111.024283.00586.037109-.001749.016325-.00586.033874-.00586.050782v3.886718c0 .506067.387561.916016.869141.916016.477499-.001166.871094-.409949.871094-.916016v-1.894531l3.507812 3.509766c.339322.339904.889194.339904 1.228516 0 .339321-.339322.339321-.889194 0-1.228516l-3.492188-3.492187h1.886719c.513647-.001167.927735-.389893.927735-.869141 0-.480414-.414088-.867188-.927735-.867188z"
      class="ColorScheme-Text" />
</svg>

<svg xmlns="http://www.w3.org/2000/svg" viewBox="0 0 22 22">
  <defs id="defs3051">
    <style type="text/css" id="current-color-scheme">
      .ColorScheme-Text {
        color:#f2f2f2
      }
      </style>
  </defs>
 <path 
     style="fill:currentColor;fill-opacity:1;stroke:none"      
	 class="ColorScheme-Text"
     d="M 3.6015625 3 C 3.379065 3 3.1562804 3.0853241 2.9863281 3.2558594 C 2.6481727 3.5945979 2.6481727 4.1436834 2.9863281 4.4824219 L 6.4785156 7.9746094 L 4.5917969 7.9746094 C 4.0793165 7.9757754 3.6660156 8.3650851 3.6660156 8.84375 C 3.6660156 9.32533 4.0793165 9.7128906 4.5917969 9.7128906 L 8.5332031 9.7128906 C 9.0462666 9.7128906 9.4617246 9.32533 9.4628906 8.84375 C 9.4617246 8.8315064 9.4581973 8.8208373 9.4570312 8.8085938 C 9.4581973 8.7934351 9.4628906 8.7753033 9.4628906 8.7578125 L 9.4628906 4.8691406 C 9.4628906 4.3648226 9.074164 3.9550781 8.59375 3.9550781 C 8.1150851 3.9568272 7.7226563 4.3648226 7.7226562 4.8691406 L 7.7226562 6.7636719 L 4.2167969 3.2558594 C 4.0465531 3.0853241 3.82406 3 3.6015625 3 z M 18.398438 3 C 18.176304 2.9999271 17.954817 3.0853241 17.785156 3.2558594 L 14.275391 6.7636719 L 14.275391 4.8691406 C 14.275391 4.3648226 13.883749 3.9568272 13.40625 3.9550781 C 12.92467 3.9550781 12.537109 4.3648226 12.537109 4.8691406 L 12.537109 8.7578125 C 12.537109 8.7747203 12.54122 8.7934351 12.542969 8.8085938 C 12.54122 8.8208373 12.538858 8.8315064 12.537109 8.84375 C 12.538858 9.32533 12.95178 9.7128906 13.464844 9.7128906 L 17.40625 9.7128906 C 17.919896 9.7128906 18.333984 9.32533 18.333984 8.84375 C 18.333984 8.3650852 17.919896 7.9757754 17.40625 7.9746094 L 15.521484 7.9746094 L 19.011719 4.484375 C 19.35104 4.1456365 19.35104 3.5945979 19.011719 3.2558594 C 18.842058 3.0850326 18.620571 3.0000729 18.398438 3 z M 8.5 12.277344 L 4.6113281 12.279297 C 4.105261 12.279297 3.6953125 12.668024 3.6953125 13.148438 C 3.6964786 13.627102 4.105261 14.017578 4.6113281 14.017578 L 6.5058594 14.017578 L 2.9960938 17.525391 C 2.6561892 17.865878 2.6556062 18.415955 2.9960938 18.755859 C 3.3354152 19.094015 3.887241 19.094015 4.2265625 18.755859 L 7.7167969 15.263672 L 7.7167969 17.150391 C 7.7179629 17.662871 8.1066896 18.076172 8.5859375 18.076172 C 9.0663515 18.076172 9.4550781 17.662871 9.4550781 17.150391 L 9.4550781 13.207031 C 9.4550781 12.693968 9.0669345 12.280463 8.5859375 12.279297 C 8.5725279 12.280463 8.5630248 12.282037 8.5507812 12.283203 C 8.5344565 12.282037 8.5169078 12.277344 8.5 12.277344 z M 13.464844 12.287109 C 12.951197 12.287109 12.538858 12.6733 12.537109 13.154297 C 12.538858 13.167123 12.54122 13.17858 12.542969 13.191406 C 12.54122 13.207731 12.537109 13.22528 12.537109 13.242188 L 12.537109 17.128906 C 12.537109 17.634973 12.92467 18.044922 13.40625 18.044922 C 13.883749 18.043756 14.277344 17.634973 14.277344 17.128906 L 14.277344 15.234375 L 17.785156 18.744141 C 18.124478 19.084045 18.67435 19.084045 19.013672 18.744141 C 19.352993 18.404819 19.352993 17.854947 19.013672 17.515625 L 15.521484 14.023438 L 17.408203 14.023438 C 17.92185 14.022271 18.335938 13.633545 18.335938 13.154297 C 18.335938 12.673883 17.92185 12.287109 17.408203 12.287109 L 13.464844 12.287109 z "
     />
</svg>
